src/lib/packages/icons/src/assets/filled/activity-square.svg

<svg xmlns="http://www.w3.org/2000/svg" width="24" height="24" fill="none"><path fill="currentColor" d="M17.625 3H6.375C4.125 3 3 4.125 3 6.375v11.25C3 19.875 4.125 21 6.375 21h11.25C19.875 21 21 19.875 21 17.625V6.375C21 4.125 19.875 3 17.625 3Zm-.095 7.53-2.793 2.793a1.752 1.752 0 0 1-2.474.001l-1.589-1.585a.25.25 0 0 0-.354 0L7.529 14.53a.748.748 0 0 1-1.06 0 .75.75 0 0 1 0-1.061l2.791-2.791a1.752 1.752 0 0 1 2.474-.001l1.589 1.585a.252.252 0 0 0 .354 0l2.793-2.793a.75.75 0 1 1 1.06 1.061Z"/></svg>

<svg width="24" height="24" viewBox="0 0 24 24" fill="none" xmlns="http://www.w3.org/2000/svg">
<path d="M17.625 3H6.375C4.125 3 3 4.125 3 6.375V17.625C3 19.875 4.125 21 6.375 21H17.625C19.875 21 21 19.875 21 17.625V6.375C21 4.125 19.875 3 17.625 3ZM17.53 10.53L14.737 13.323C14.056 14.005 12.945 14.006 12.263 13.324L10.674 11.739C10.576 11.641 10.418 11.641 10.32 11.739L7.529 14.53C7.383 14.676 7.191 14.75 6.999 14.75C6.807 14.75 6.615 14.677 6.469 14.53C6.176 14.237 6.176 13.762 6.469 13.469L9.25999 10.678C9.94199 9.99598 11.052 9.996 11.734 10.677L13.323 12.262C13.421 12.359 13.579 12.359 13.677 12.262L16.47 9.46899C16.763 9.17599 17.238 9.17599 17.531 9.46899C17.824 9.76199 17.823 10.237 17.53 10.53Z" fill="currentColor"/>
</svg>
